X: 14272
T: Gaelic Club, The
R: jig
M: 6/8
K: Aminor
(A/B/)|cBA AGE|ABA ABc|BAG BdG|Bdg GAB|
cBA AGE|ABA c2d|eg/f/e dcB|cAA A2:|
B|ceg gec|ceg dBG|ceg gec|BGG GAB|
cBA AGE|ABA c2d|eg/f/e dcB|cAA A2:|

